tools/download-figma-icons/icons/outlined-medium/money-bag.svg

<svg width="24" height="24" viewBox="0 0 24 24" fill="none" xmlns="http://www.w3.org/2000/svg">
<path fill-rule="evenodd" clip-rule="evenodd" d="M12.0001 22.5002C15.6061 22.5002 18.0443 21.7922 19.2473 20.3972C20.1496 19.351 20.4383 17.8337 20.1301 15.7562C19.5248 11.6785 16.0478 8.86222 15.2311 8.25097H8.7691C7.9516 8.86222 4.47535 11.6785 3.8701 15.7562C3.56185 17.8337 3.8506 19.351 4.75285 20.3972C5.95585 21.7922 8.3941 22.5002 12.0001 22.5002ZM12.7388 1.93146C11.9063 2.16246 11.0446 2.40096 10.1011 2.40096C9.18835 2.40096 8.2396 2.22621 7.4596 2.02896L8.6926 4.50096H15.3533L16.9958 1.84821C16.7251 1.73646 16.2803 1.60821 15.5753 1.52796C14.5951 1.41696 13.6921 1.66671 12.7388 1.93146ZM8.25012 6.37597C8.25012 6.58297 8.41887 6.75097 8.62512 6.75097H15.3751C15.5814 6.75097 15.7501 6.58297 15.7501 6.37597C15.7501 6.16897 15.5814 6.00097 15.3751 6.00097H8.62512C8.41887 6.00097 8.25012 6.16897 8.25012 6.37597ZM16.7994 7.58122C18.2634 8.81572 21.0324 11.617 21.6136 15.5357C21.9901 18.07 21.5874 19.9802 20.3836 21.3767C18.8611 23.1422 16.1191 24.0002 12.0001 24.0002C7.88112 24.0002 5.13836 23.1422 3.61661 21.3767C2.41286 19.9802 2.01011 18.07 2.38661 15.5357C2.96786 11.617 5.73686 8.81572 7.20086 7.58122C6.92336 7.25422 6.75011 6.83647 6.75011 6.37597C6.75011 5.86222 6.95786 5.39647 7.29386 5.05672L5.32886 1.11772C5.19011 0.839473 5.23736 0.504223 5.44886 0.275473C5.65886 0.0467227 5.98887 -0.0282773 6.27837 0.0864727C6.29861 0.0947227 8.34236 0.900973 10.1011 0.900973C10.8386 0.900973 11.5641 0.700344 12.3319 0.488L12.3384 0.486223L12.3506 0.482826C13.3968 0.192134 14.4741 -0.107213 15.7449 0.0377227C17.9551 0.288973 18.5319 1.02397 18.6766 1.32772C18.7869 1.55872 18.7719 1.82872 18.6384 2.04622L16.7446 5.10397C17.0559 5.43922 17.2501 5.88397 17.2501 6.37597C17.2501 6.83647 17.0761 7.25422 16.7994 7.58122ZM13.1576 18.2364C13.3721 18.1592 13.5881 18.0384 13.7989 17.8802C14.1311 17.6304 14.6006 17.6979 14.8489 18.0279C15.0979 18.3594 15.0326 18.8297 14.7011 19.0787C14.3711 19.3269 14.0231 19.5189 13.6669 19.6472C13.2356 19.8032 12.7939 19.8789 12.3581 19.8789C11.2729 19.8789 10.2199 19.4087 9.42861 18.5274C9.08811 18.1479 8.83536 17.7107 8.64261 17.2502H7.50036C7.08561 17.2502 6.75036 16.9142 6.75036 16.5002C6.75036 16.0862 7.08561 15.7502 7.50036 15.7502H8.28936C8.27061 15.4997 8.27061 15.2507 8.28936 15.0002H7.50036C7.08561 15.0002 6.75036 14.6642 6.75036 14.2502C6.75036 13.8362 7.08561 13.5002 7.50036 13.5002H8.64261C8.83461 13.0389 9.08736 12.6017 9.42861 12.2222C10.8319 10.6584 13.0489 10.4252 14.7004 11.6657C15.0319 11.9139 15.0979 12.3842 14.8496 12.7149C14.6014 13.0464 14.1296 13.1132 13.7996 12.8642C12.7684 12.0902 11.4304 12.2387 10.5446 13.2242C10.4887 13.2867 10.4415 13.3557 10.3944 13.4246C10.3771 13.4499 10.3598 13.4752 10.3421 13.5002H11.9974C12.4114 13.5002 12.7474 13.8362 12.7474 14.2502C12.7474 14.6642 12.4114 15.0002 11.9974 15.0002H9.77811C9.75111 15.2499 9.75111 15.5004 9.77886 15.7502H11.9974C12.4114 15.7502 12.7474 16.0862 12.7474 16.5002C12.7474 16.9142 12.4114 17.2502 11.9974 17.2502H10.3436C10.3582 17.2712 10.3725 17.2924 10.3869 17.3136C10.4361 17.3863 10.4854 17.4593 10.5446 17.5254C11.2369 18.2957 12.2366 18.5679 13.1576 18.2364Z" fill="black"/>
</svg>

<svg width="24" height="24" viewBox="0 0 24 24" fill="none" xmlns="http://www.w3.org/2000/svg"><path fill-rule="evenodd" clip-rule="evenodd" d="M12 22.5c3.606 0 6.044-.708 7.247-2.103.903-1.046 1.191-2.563.883-4.64-.605-4.079-4.082-6.895-4.899-7.506H8.77c-.817.611-4.294 3.428-4.899 7.505-.308 2.078-.02 3.595.883 4.641C5.956 21.792 8.394 22.5 12 22.5Zm.739-20.569c-.833.231-1.694.47-2.638.47-.913 0-1.861-.175-2.641-.372l1.233 2.472h6.66l1.643-2.653c-.27-.112-.716-.24-1.42-.32-.98-.111-1.884.139-2.837.403ZM8.25 6.376c0 .207.169.375.375.375h6.75a.376.376 0 0 0 0-.75h-6.75a.376.376 0 0 0-.375.375Zm8.55 1.205c1.463 1.235 4.232 4.036 4.814 7.955.376 2.534-.027 4.444-1.23 5.84C18.86 23.143 16.119 24 12 24c-4.119 0-6.862-.858-8.383-2.623-1.204-1.397-1.607-3.307-1.23-5.841.58-3.919 3.35-6.72 4.814-7.955a1.857 1.857 0 0 1 .093-2.524l-1.965-3.94a.75.75 0 0 1 .95-1.031c.02.009 2.063.815 3.822.815.738 0 1.463-.2 2.23-.413l.007-.002.013-.003c1.046-.29 2.123-.59 3.394-.445 2.21.251 2.787.986 2.932 1.29a.753.753 0 0 1-.039.718l-1.893 3.058c.31.335.505.78.505 1.272 0 .46-.174.878-.45 1.205Zm-3.642 10.655a2.48 2.48 0 0 0 .64-.356.75.75 0 1 1 .903 1.199 3.842 3.842 0 0 1-2.343.8c-1.085 0-2.138-.47-2.93-1.352a4.486 4.486 0 0 1-.785-1.277H7.5a.75.75 0 1 1 0-1.5h.79c-.02-.25-.02-.5 0-.75H7.5a.75.75 0 1 1 0-1.5h1.143a4.44 4.44 0 0 1 .786-1.278c1.403-1.564 3.62-1.797 5.271-.556a.749.749 0 1 1-.9 1.198c-1.032-.774-2.37-.625-3.255.36a1.924 1.924 0 0 0-.15.2l-.053.076h1.655a.75.75 0 0 1 0 1.5H9.778c-.027.25-.027.5 0 .75h2.22a.75.75 0 0 1 0 1.5h-1.654l.043.064c.05.072.098.145.158.211.692.77 1.692 1.043 2.613.711Z" fill="currentColor"/></svg>
